App/rsc/display_crosshairs.svg

<?xml version="1.0" encoding="UTF-8" standalone="no"?>
<!-- Creator: CorelDRAW -->

<svg
   xmlns:dc="http://purl.org/dc/elements/1.1/"
   xmlns:cc="http://creativecommons.org/ns#"
   xmlns:rdf="http://www.w3.org/1999/02/22-rdf-syntax-ns#"
   xmlns:svg="http://www.w3.org/2000/svg"
   xmlns="http://www.w3.org/2000/svg"
   xmlns:sodipodi="http://sodipodi.sourceforge.net/DTD/sodipodi-0.dtd"
   xmlns:inkscape="http://www.inkscape.org/namespaces/inkscape"
   xml:space="preserve"
   width="500px"
   height="463px"
   style="shape-rendering:geometricPrecision; text-rendering:geometricPrecision; image-rendering:optimizeQuality; fill-rule:evenodd"
   viewBox="0 0 500 462"
   id="svg9806"
   sodipodi:version="0.32"
   inkscape:version="0.91 r13725"
   sodipodi:docname="display_crosshairs.svg"
   inkscape:output_extension="org.inkscape.output.svg.inkscape"
   version="1.1"><metadata
     id="metadata9864"><rdf:RDF><cc:Work
         rdf:about=""><dc:format>image/svg+xml</dc:format><dc:type
           rdf:resource="http://purl.org/dc/dcmitype/StillImage" /><dc:title /></cc:Work></rdf:RDF></metadata><sodipodi:namedview
     inkscape:window-height="1025"
     inkscape:window-width="1920"
     inkscape:pageshadow="2"
     inkscape:pageopacity="0.0"
     guidetolerance="10.0"
     gridtolerance="10.0"
     objecttolerance="10.0"
     borderopacity="1.0"
     bordercolor="#666666"
     pagecolor="#ffffff"
     id="base"
     showgrid="false"
     inkscape:zoom="1.5211196"
     inkscape:cx="148.83472"
     inkscape:cy="245.16954"
     inkscape:window-x="-2"
     inkscape:window-y="32"
     inkscape:current-layer="svg9806"
     inkscape:window-maximized="1" /><defs
     id="defs9808"><inkscape:perspective
       sodipodi:type="inkscape:persp3d"
       inkscape:vp_x="0 : 231.5 : 1"
       inkscape:vp_y="0 : 1000 : 0"
       inkscape:vp_z="500 : 231.5 : 1"
       inkscape:persp3d-origin="250 : 154.33333 : 1"
       id="perspective52" /></defs><path
     style="fill:#00ffff;fill-opacity:1"
     d=""
     id="path3161"
     inkscape:connector-curvature="0"
     transform="translate(0,-0.5)" /><g
     id="g4142"
     transform="matrix(1.106847,0,0,1.106847,-26.661221,-24.473179)"><path
       class="fil0 str0"
       d="m 169,344 185,-85 -17,71 -165,103 -3,-89 z"
       id="path9813"
       style="fill:#00fbff;fill-opacity:1;stroke:#000000"
       inkscape:connector-curvature="0" /><path
       class="fil1 str0"
       d="m 227,116 -99,-53 11,180 73,0 15,-127 z"
       id="path9815"
       style="fill:#f700db;fill-opacity:1;stroke:#000000"
       inkscape:connector-curvature="0" /><path
       class="fil3 str0"
       d="M 343,285 176,188 29,261 191,375 343,285 Z"
       id="path9819"
       style="fill:#0616ec;fill-opacity:1;stroke:#000000"
       inkscape:connector-curvature="0" /><path
       class="fil3 str0"
       d="m 470,208 -169,-86 -89,30 162,114 96,-58 z"
       id="path9821"
       style="fill:#0043ff;fill-opacity:1;stroke:#000000"
       inkscape:connector-curvature="0" /><path
       class="fil0 str0"
       d="M 158,108 343,25 337,190 165,283 158,108 Z"
       id="path9825"
       style="fill:#00ffff;stroke:#000000"
       inkscape:connector-curvature="0" /><path
       class="fil1 str0"
       d="m 406,212 -149,-79 -1,101 87,51 -80,47 129,84 14,-204 z"
       id="path9837"
       style="fill:#2f6953;fill-opacity:1;stroke:#000000"
       inkscape:connector-curvature="0" /><path
       transform="translate(0,-0.5)"
       inkscape:connector-curvature="0"
       id="path3145"
       d="m 328.11272,373.90305 c -34.42082,-22.45276 -62.73096,-40.97972 -62.91141,-41.17104 -0.18045,-0.19131 17.54077,-10.84136 39.38049,-23.66678 30.09509,-17.67338 39.51669,-23.49868 38.91593,-24.06139 -0.43596,-0.40835 -19.874,-11.89833 -43.19564,-25.53328 -23.32163,-13.63494 -42.64959,-25.02583 -42.951,-25.31309 -0.30142,-0.28725 -0.30142,-22.7302 0,-49.87321 l 0.54803,-49.35093 73.45606,38.92021 c 67.14177,35.57462 73.45939,39.06147 73.49474,40.56372 0.0839,3.56412 -13.42027,199.549 -13.77505,199.91653 -0.20836,0.21584 -28.54132,-17.97799 -62.96215,-40.43074 l 0,0 z"
       style="fill:#ff00ff;fill-opacity:1" /><path
       transform="translate(0,-0.5)"
       inkscape:connector-curvature="0"
       id="path3203"
       d="m 378.86265,406.19519 c -23.31803,-14.75358 -112.66673,-72.98345 -112.69352,-73.44404 -0.0199,-0.342 10.93581,-6.96241 49.25341,-29.7633 23.69359,-14.09887 28.54486,-17.24889 27.97776,-18.16648 -0.18754,-0.30345 -19.57599,-11.89695 -43.08543,-25.76335 l -42.74446,-25.21163 0.0891,-33.5457 c 0.049,-18.45013 0.27088,-40.53948 0.49306,-49.08744 l 0.40397,-15.54175 26.62512,14.11377 c 82.82639,43.90561 115.97418,61.75689 118.35535,63.7386 0.90221,0.75085 0.71466,5.2587 -1.79337,43.10459 -2.74008,41.34734 -10.57708,153.5213 -10.88972,155.86855 -0.12727,0.95554 -2.45169,-0.26602 -11.99126,-6.30182 z"
       style="fill:#ff00ff;fill-opacity:1" /></g></svg>

<?xml version="1.0" encoding="UTF-8" standalone="no"?>
<!-- Creator: CorelDRAW -->

<svg
   xmlns:dc="http://purl.org/dc/elements/1.1/"
   xmlns:cc="http://creativecommons.org/ns#"
   xmlns:rdf="http://www.w3.org/1999/02/22-rdf-syntax-ns#"
   xmlns:svg="http://www.w3.org/2000/svg"
   xmlns="http://www.w3.org/2000/svg"
   xmlns:sodipodi="http://sodipodi.sourceforge.net/DTD/sodipodi-0.dtd"
   xmlns:inkscape="http://www.inkscape.org/namespaces/inkscape"
   xml:space="preserve"
   width="500px"
   height="463px"
   style="shape-rendering:geometricPrecision; text-rendering:geometricPrecision; image-rendering:optimizeQuality; fill-rule:evenodd"
   viewBox="0 0 500 462"
   id="svg9806"
   sodipodi:version="0.32"
   inkscape:version="0.48.4 r9939"
   sodipodi:docname="Octant_planes.svg"
   inkscape:output_extension="org.inkscape.output.svg.inkscape"
   version="1.1"><metadata
     id="metadata9864"><rdf:RDF><cc:Work
         rdf:about=""><dc:format>image/svg+xml</dc:format><dc:type
           rdf:resource="http://purl.org/dc/dcmitype/StillImage" /><dc:title></dc:title></cc:Work></rdf:RDF></metadata><sodipodi:namedview
     inkscape:window-height="972"
     inkscape:window-width="1652"
     inkscape:pageshadow="2"
     inkscape:pageopacity="0.0"
     guidetolerance="10.0"
     gridtolerance="10.0"
     objecttolerance="10.0"
     borderopacity="1.0"
     bordercolor="#666666"
     pagecolor="#ffffff"
     id="base"
     showgrid="false"
     inkscape:zoom="1.5211196"
     inkscape:cx="115.96419"
     inkscape:cy="239.37899"
     inkscape:window-x="59"
     inkscape:window-y="24"
     inkscape:current-layer="svg9806"
     inkscape:window-maximized="0" /><defs
     id="defs9808"><inkscape:perspective
       sodipodi:type="inkscape:persp3d"
       inkscape:vp_x="0 : 231.5 : 1"
       inkscape:vp_y="0 : 1000 : 0"
       inkscape:vp_z="500 : 231.5 : 1"
       inkscape:persp3d-origin="250 : 154.33333 : 1"
       id="perspective52" /></defs><path
     style="fill:#00fbff;stroke:#000000;fill-opacity:1"
     id="path9813"
     d="M 169,344 L 354,259 L 337,330 L 172,433 L 169,344 z"
     class="fil0 str0" /><path
     style="fill:#f700db;stroke:#000000;fill-opacity:1"
     id="path9815"
     d="M 227,116 L 128,63 L 139,243 L 212,243 L 227,116 z"
     class="fil1 str0" /><path
     style="fill:#0616ec;stroke:#000000;fill-opacity:1"
     id="path9819"
     d="M 343,285 L 176,188 L 29,261 L 191,375 L 343,285 z"
     class="fil3 str0" /><path
     style="fill:#0043ff;stroke:#000000;fill-opacity:1"
     id="path9821"
     d="M 470,208 L 301,122 L 212,152 L 374,266 L 470,208 z"
     class="fil3 str0" /><path
     style="fill:#00ffff;stroke:#000000"
     id="path9825"
     d="M 158,108 L 343,25 L 337,190 L 165,283 L 158,108 z"
     class="fil0 str0" /><path
     style="fill:#2f6953;stroke:#000000;fill-opacity:1"
     id="path9837"
     d="M 406,212 L 257,133 L 256,234 L 343,285 L 263,332 L 392,416 L 406,212 z"
     class="fil1 str0" /><path
     style="fill:#ff00ff;fill-opacity:1"
     d="m 328.11272,373.90305 c -34.42082,-22.45276 -62.73096,-40.97972 -62.91141,-41.17104 -0.18045,-0.19131 17.54077,-10.84136 39.38049,-23.66678 30.09509,-17.67338 39.51669,-23.49868 38.91593,-24.06139 -0.43596,-0.40835 -19.874,-11.89833 -43.19564,-25.53328 -23.32163,-13.63494 -42.64959,-25.02583 -42.951,-25.31309 -0.30142,-0.28725 -0.30142,-22.7302 0,-49.87321 l 0.54803,-49.35093 73.45606,38.92021 c 67.14177,35.57462 73.45939,39.06147 73.49474,40.56372 0.0839,3.56412 -13.42027,199.549 -13.77505,199.91653 -0.20836,0.21584 -28.54132,-17.97799 -62.96215,-40.43074 l 0,0 z"
     id="path3145"
     inkscape:connector-curvature="0"
     transform="translate(0,-0.5)" /><path
     style="fill:#00ffff;fill-opacity:1"
     d=""
     id="path3161"
     inkscape:connector-curvature="0"
     transform="translate(0,-0.5)" /><path
     style="fill:#ff00ff;fill-opacity:1"
     d="m 378.86265,406.19519 c -23.31803,-14.75358 -112.66673,-72.98345 -112.69352,-73.44404 -0.0199,-0.342 10.93581,-6.96241 49.25341,-29.7633 23.69359,-14.09887 28.54486,-17.24889 27.97776,-18.16648 -0.18754,-0.30345 -19.57599,-11.89695 -43.08543,-25.76335 l -42.74446,-25.21163 0.0891,-33.5457 c 0.049,-18.45013 0.27088,-40.53948 0.49306,-49.08744 l 0.40397,-15.54175 26.62512,14.11377 c 82.82639,43.90561 115.97418,61.75689 118.35535,63.7386 0.90221,0.75085 0.71466,5.2587 -1.79337,43.10459 -2.74008,41.34734 -10.57708,153.5213 -10.88972,155.86855 -0.12727,0.95554 -2.45169,-0.26602 -11.99126,-6.30182 z"
     id="path3203"
     inkscape:connector-curvature="0"
     transform="translate(0,-0.5)" /></svg>
